public/img/logo.svg

<svg width="54" height="60" viewBox="0 0 54 60" fill="none" xmlns="http://www.w3.org/2000/svg">
<path d="M53.75 0V10.375C51.6875 5.8125 47.9375 2.0625 43.375 0H53.75Z" fill="#2C2E3A"/>
<path d="M46.25 60H20C8.9375 60 0 51.0625 0 40V7.5C0 3.375 3.375 0 7.5 0H33.75C44.8125 0 53.75 8.9375 53.75 20V52.5C53.75 56.625 50.375 60 46.25 60Z" fill="#BFA779"/>
<path d="M42.75 40.5C42.375 43.5625 41.3125 45.9375 39.625 47.5625C37.875 49.1875 35.6875 50.0625 33.0625 50.0625C30.9375 50.0625 28.9375 49.5 27.125 48.4375C25.375 47.375 23.9375 45.8125 22.8125 43.8125C22.0625 42.4375 21.625 41 21.375 39.4375H25.6875C25.9375 42.25 26.6875 44.4375 27.9375 46C29.25 47.6875 31.125 48.5625 33.5 48.5625C35.5625 48.5625 37.3125 47.875 38.75 46.5625C40.1875 45.25 41.0625 43.1875 41.5 40.5H42.75Z" fill="#2C2E3A"/>
<path d="M41.6875 23.1875H40.5625L39.375 25.6875C38.125 24.75 37 24.125 35.9375 23.75C34.875 23.375 33.8125 23.1875 32.6875 23.1875C31.5625 23.1875 30.4375 23.375 29.375 23.75C28.75 23.5 28 23.3125 27.25 23.1875C28.75 22.75 30 22.125 30.9375 21.4375C31.25 21.1875 31.5 20.9375 31.75 20.6875C32.75 19.625 33.25 18.375 33.25 16.875C33.25 15.0625 32.5625 13.625 31.125 12.4375C29.6875 11.25 27.625 10.625 24.9375 10.625H11.25V11.9375H13.5625C14.125 11.9375 14.5625 12.0625 14.875 12.3125C15.1875 12.5625 15.3125 12.9375 15.3125 13.4375V20.1875H19.125V13.3125C19.125 12.8125 19.3125 12.4375 19.625 12.25C19.9375 12.0625 20.875 11.9375 22.3125 11.9375C24.3125 11.9375 25.75 12.125 26.5625 12.4375C27.375 12.75 28 13.25 28.4375 14C28.875 14.6875 29.0625 15.6875 29.0625 16.9375C29.0625 19 28.625 20.4375 27.6875 21.375C26.8125 22.25 25.5625 22.75 24.0625 22.75H15.3125V34.5625C15.3125 34.8125 15.1875 35.0625 14.875 35.3125C14.5625 35.5 14.125 35.625 13.4375 35.625H11.25V36.875H24.5C24.875 36.875 25.25 36.875 25.625 36.8125C26.25 36.75 26.875 36.6875 27.5 36.5625C28.4375 36.375 29.3125 36.125 30.0625 35.75C31.6875 35.0625 32.875 34.1875 33.5625 33.1875C34.25 32.1875 34.625 31 34.625 29.75C34.625 28.4375 34.25 27.3125 33.5625 26.375C33.375 26.3125 33.125 26.3125 32.875 26.3125C31.75 26.3125 30.8125 26.6875 29.9375 27.4375C30.1875 28.125 30.3125 28.875 30.3125 29.75C30.3125 31.6875 29.8125 33.1875 28.8125 34.125C28.4375 34.4375 28 34.75 27.5 34.9375C26.9375 35.1875 26.3125 35.3125 25.625 35.4375C25.75 31.75 26.4375 29.0625 27.625 27.375C28.0625 26.75 28.5 26.25 29 25.8125C29.125 25.75 29.1875 25.625 29.3125 25.5625C29.5 25.4375 29.6875 25.3125 29.875 25.1875C29.875 25.1875 30.1875 25 30.25 25C30.375 24.9375 30.8125 24.75 30.9375 24.75C31.0625 24.75 31.375 24.625 31.4375 24.625C31.875 24.5 32.375 24.5 32.8125 24.5C34.8125 24.5 36.5 25.375 37.9375 27.0625C39.125 28.4375 40.0625 30.5625 40.8125 33.5H42L41.6875 23.1875ZM27.1875 24.8125C25.4375 25.9375 24.0625 27.625 22.9375 29.875C22.0625 31.6875 21.5625 33.5625 21.375 35.5625H21.0625C20.3125 35.5625 19.8125 35.4375 19.5625 35.1875C19.3125 34.9375 19.1875 34.625 19.1875 34.125V24H24.5625C24.75 24 24.9375 24 25.1875 24C26.125 24.0625 26.875 24.25 27.5625 24.5625C27.375 24.6875 27.25 24.75 27.1875 24.8125Z" fill="#2C2E3A"/>
</svg>

<svg xmlns="http://www.w3.org/2000/svg" width="54" height="60" fill="none"><path fill="#2C2E3A" d="M53.75 0v10.38A20.96 20.96 0 0 0 43.37 0h10.38Z"/><path fill="#BFA779" d="M46.25 60H20C8.94 60 0 51.06 0 40V7.5C0 3.37 3.38 0 7.5 0h26.25c11.06 0 20 8.94 20 20v32.5c0 4.13-3.38 7.5-7.5 7.5Z"/><path fill="#2C2E3A" d="M42.75 40.5c-.38 3.06-1.44 5.44-3.13 7.06a9.32 9.32 0 0 1-6.56 2.5c-2.12 0-4.12-.56-5.94-1.62a12.35 12.35 0 0 1-4.3-4.63 13.35 13.35 0 0 1-1.45-4.37h4.32c.25 2.81 1 5 2.25 6.56a6.69 6.69 0 0 0 5.56 2.56c2.06 0 3.81-.69 5.25-2s2.31-3.37 2.75-6.06h1.25ZM41.69 23.19h-1.13l-1.19 2.5a13.03 13.03 0 0 0-3.43-1.94 9.97 9.97 0 0 0-6.56 0c-.63-.25-1.38-.44-2.13-.56 1.5-.44 2.75-1.07 3.69-1.75.31-.25.56-.5.81-.75 1-1.07 1.5-2.32 1.5-3.82 0-1.8-.69-3.25-2.13-4.43-1.43-1.19-3.5-1.81-6.18-1.81H11.25v1.3h2.31c.56 0 1 .13 1.31.38.32.25.44.63.44 1.13v6.75h3.81V13.3c0-.5.2-.87.5-1.06.32-.19 1.25-.31 2.7-.31 2 0 3.43.19 4.24.5.82.31 1.44.81 1.88 1.56.43.69.62 1.69.62 2.94 0 2.06-.43 3.5-1.37 4.43a5 5 0 0 1-3.63 1.38h-8.75v11.81c0 .25-.12.5-.44.75-.3.19-.74.31-1.43.31h-2.19v1.26H24.5c.38 0 .75 0 1.13-.07.62-.06 1.25-.12 1.87-.25.94-.19 1.81-.44 2.56-.81a7.86 7.86 0 0 0 3.5-2.56 6.04 6.04 0 0 0 0-6.81c-.19-.07-.44-.07-.69-.07-1.12 0-2.06.38-2.93 1.13.25.68.37 1.43.37 2.31 0 1.94-.5 3.44-1.5 4.38-.37.3-.81.62-1.31.8-.56.26-1.19.38-1.88.5.13-3.68.82-6.37 2-8.05.44-.63.88-1.13 1.38-1.57.13-.06.19-.18.31-.25l.57-.37s.3-.19.37-.19c.13-.06.56-.25.69-.25.12 0 .43-.13.5-.13.43-.12.93-.12 1.37-.12 2 0 3.69.88 5.13 2.56 1.19 1.38 2.12 3.5 2.87 6.44H42l-.31-10.31Zm-14.5 1.62a12.31 12.31 0 0 0-4.25 5.07 16.4 16.4 0 0 0-1.57 5.68h-.3c-.76 0-1.26-.12-1.5-.37-.26-.25-.38-.56-.38-1.06V24h6c.93.06 1.68.25 2.37.56-.18.13-.31.19-.37.25Z"/></svg>
